; generated by Slic3r 1.3.0 on 2024-01-27 at 15:54:40

; external perimeters extrusion width = 0.44mm (3.38mm^3/s)
; perimeters extrusion width = 0.48mm (7.54mm^3/s)
; infill extrusion width = 0.48mm (10.05mm^3/s)
; solid infill extrusion width = 0.48mm (2.51mm^3/s)
; top infill extrusion width = 0.48mm (1.88mm^3/s)

M107
M104 S235 ; set temperature
G28 ; home all axes
G1 Z5 F5000 ; lift nozzle

; Filament gcode

M109 S235 ; set temperature and wait for it to be reached
G21 ; set units to millimeters
G90 ; use absolute coordinates
M82 ; use absolute distances for extrusion
G92 E0
G1 Z0.400 F7800.000
G1 E-2.00000 F2400.00000
G92 E0
G1 X-15.714 Y31.250 F7800.000
G1 E2.00000 F2400.00000
G1 F1800
G1 X-15.714 Y-38.250 E10.25418
G1 X-15.317 Y-40.525 E10.52840
G1 X-14.173 Y-42.530 E10.80263
G1 X-12.417 Y-44.030 E11.07685
G1 X-10.257 Y-44.845 E11.35108
G1 X-9.000 Y-44.964 E11.50105
G1 X9.000 Y-44.964 E13.63882
G1 X11.275 Y-44.567 E13.91304
G1 X13.280 Y-43.423 E14.18727
G1 X14.780 Y-41.667 E14.46149
G1 X15.595 Y-39.507 E14.73572
G1 X15.714 Y-38.250 E14.88568
G1 X15.714 Y31.250 E23.13986
G1 X15.317 Y33.525 E23.41409
G1 X14.830 Y34.581 E23.55229
G1 X10.830 Y41.581 E24.50981
G1 X9.356 Y43.359 E24.78403
G1 X7.368 Y44.533 E25.05826
G1 X5.000 Y44.964 E25.34411
G1 X-5.000 Y44.964 E26.53176
G1 X-7.275 Y44.567 E26.80599
G1 X-9.280 Y43.423 E27.08021
G1 X-10.830 Y41.581 E27.36606
G1 X-14.830 Y34.581 E28.32358
G1 X-15.613 Y32.409 E28.59780
G1 X-15.709 Y31.310 E28.72888
G1 E26.72888 F2400.00000
G92 E0
G1 X-3.172 Y29.422 F7800.000
G1 E2.00000 F2400.00000
G1 F1800
G1 X-7.172 Y29.422 E2.47506
G1 X-7.172 Y-36.421 E10.29493
G1 X-4.109 Y-36.421 E10.65862
G1 X-4.091 Y-36.163 E10.68935
G1 X-3.939 Y-35.496 E10.77059
G1 X-3.739 Y-34.991 E10.83515
G1 X-3.489 Y-34.536 E10.89678
G1 X-3.184 Y-34.116 E10.95840
G1 X-2.809 Y-33.717 E11.02346
G1 X-2.239 Y-33.275 E11.10905
G1 X-1.759 Y-33.011 E11.17410
G1 X-1.277 Y-32.820 E11.23573
G1 X-0.746 Y-32.684 E11.30078
G1 X-0.000 Y-32.614 E11.38981
G1 X0.746 Y-32.684 E11.47884
G1 X1.277 Y-32.820 E11.54390
G1 X1.759 Y-33.011 E11.60552
G1 X2.236 Y-33.273 E11.67008
G1 X2.778 Y-33.690 E11.75132
G1 X3.179 Y-34.110 E11.82028
G1 X3.489 Y-34.536 E11.88284
G1 X3.753 Y-35.016 E11.94789
G1 X3.997 Y-35.694 E12.03348
G1 X4.099 Y-36.232 E12.09854
G1 X4.111 Y-36.422 E12.12110
G1 X7.172 Y-36.422 E12.48457
G1 X7.172 Y29.422 E20.30446
G1 X3.172 Y29.422 E20.77952
G1 X3.172 Y36.422 E21.61088
G1 X-3.172 Y36.422 E22.36425
G1 X-3.172 Y29.482 E23.18848
G1 X-3.886 Y30.136 F7800.000
G1 F1800
G1 X-7.886 Y30.136 E23.66354
G1 X-7.886 Y-37.136 E31.65306
G1 X-3.392 Y-37.135 E32.18676
G1 X-3.417 Y-36.745 E32.23316
G1 X-3.383 Y-36.269 E32.28992
G1 X-3.255 Y-35.708 E32.35817
G1 X-3.091 Y-35.295 E32.41091
G1 X-2.885 Y-34.919 E32.46187
G1 X-2.632 Y-34.572 E32.51282
G1 X-2.327 Y-34.247 E32.56586
G1 X-1.846 Y-33.874 E32.63810
G1 X-1.455 Y-33.659 E32.69115
G1 X-1.056 Y-33.501 E32.74210
G1 X-0.623 Y-33.390 E32.79514
G1 X-0.000 Y-33.331 E32.86948
G1 X0.623 Y-33.390 E32.94382
G1 X1.056 Y-33.501 E32.99686
G1 X1.455 Y-33.659 E33.04781
G1 X1.844 Y-33.873 E33.10056
G1 X2.299 Y-34.223 E33.16880
G1 X2.630 Y-34.568 E33.22556
G1 X2.885 Y-34.919 E33.27708
G1 X3.100 Y-35.311 E33.33013
G1 X3.306 Y-35.883 E33.40237
G1 X3.389 Y-36.322 E33.45541
G1 X3.416 Y-36.750 E33.50637
G1 X3.392 Y-37.136 E33.55228
G1 X7.886 Y-37.136 E34.08598
G1 X7.886 Y30.136 E42.07552
G1 X3.886 Y30.136 E42.55058
G1 X3.886 Y37.136 E43.38193
G1 X-3.886 Y37.136 E44.30494
G1 X-3.886 Y30.196 E45.12917
G1 X-4.600 Y30.850 F7800.000
G1 F1800
G1 X-8.600 Y30.850 E45.60423
G1 X-8.600 Y-37.850 E53.76339
G1 X-2.463 Y-37.849 E54.49225
G1 X-2.615 Y-37.428 E54.54543
G1 X-2.679 Y-37.089 E54.58647
G1 X-2.701 Y-36.748 E54.62695
G1 X-2.674 Y-36.374 E54.67151
G1 X-2.571 Y-35.920 E54.72677
G1 X-2.444 Y-35.600 E54.76769
G1 X-2.280 Y-35.303 E54.80798
G1 X-2.081 Y-35.028 E54.84826
G1 X-1.844 Y-34.777 E54.88929
G1 X-1.453 Y-34.473 E54.94818
G1 X-1.150 Y-34.306 E54.98921
G1 X-0.835 Y-34.181 E55.02949
G1 X-0.500 Y-34.095 E55.07052
G1 X-0.000 Y-34.048 E55.13017
G1 X0.500 Y-34.095 E55.18981
G1 X0.835 Y-34.181 E55.23084
G1 X1.150 Y-34.306 E55.27112
G1 X1.452 Y-34.472 E55.31204
G1 X1.821 Y-34.756 E55.36731
G1 X2.080 Y-35.027 E55.41186
G1 X2.280 Y-35.303 E55.45235
G1 X2.447 Y-35.606 E55.49338
G1 X2.615 Y-36.072 E55.55227
G1 X2.679 Y-36.411 E55.59330
G1 X2.701 Y-36.750 E55.63358
G1 X2.679 Y-37.089 E55.67386
G1 X2.615 Y-37.428 E55.71490
G1 X2.463 Y-37.850 E55.76818
G1 X8.600 Y-37.850 E56.49707
G1 X8.600 Y30.850 E64.65624
G1 X4.600 Y30.850 E65.13130
G1 X4.600 Y37.850 E65.96265
G1 X-4.600 Y37.850 E67.05529
G1 X-4.600 Y30.910 E67.87952
G1 X-4.721 Y30.469 F7800.000
G1 E65.87952 F2400.00000
G92 E0
G1 X-2.735 Y33.782 F7800.000
G1 E2.00000 F2400.00000
G1 F1800
G1 X6.735 Y24.312 E3.60147
G1 X6.735 Y23.295 E3.72305
G1 X-2.735 Y32.766 E5.32452
G1 X-2.735 Y31.749 E5.44610
G1 X6.735 Y22.278 E7.04757
G1 X6.735 Y21.261 E7.16916
G1 X-2.735 Y30.732 E8.77063
G1 X-2.735 Y29.715 E8.89221
G1 X6.735 Y20.245 E10.49368
G1 X6.735 Y19.228 E10.61526
G1 X-3.022 Y28.985 E12.26526
G1 X-4.039 Y28.985 E12.38685
G1 X6.735 Y18.211 E14.20879
G1 X6.735 Y17.194 E14.33038
G1 X-5.056 Y28.985 E16.32427
G1 X-6.073 Y28.985 E16.44585
G1 X6.735 Y16.177 E18.61169
G1 X6.735 Y15.160 E18.73327
G1 X-6.735 Y28.631 E21.01114
G1 X-6.735 Y27.614 E21.13272
G1 X6.735 Y14.144 E23.41059
G1 X6.735 Y13.127 E23.53217
G1 X-6.735 Y26.597 E25.81004
G1 X-6.735 Y25.580 E25.93162
G1 X6.735 Y12.110 E28.20949
G1 X6.735 Y11.093 E28.33107
G1 X-6.735 Y24.564 E30.60894
G1 X-6.735 Y23.547 E30.73052
G1 X6.735 Y10.076 E33.00839
G1 X6.735 Y9.059 E33.12997
G1 X-6.735 Y22.530 E35.40784
G1 X-6.735 Y21.513 E35.52942
G1 X6.735 Y8.043 E37.80729
G1 X6.735 Y7.026 E37.92887
G1 X-6.735 Y20.496 E40.20674
G1 X-6.735 Y19.479 E40.32832
G1 X6.735 Y6.009 E42.60619
G1 X6.735 Y4.992 E42.72777
G1 X-6.735 Y18.463 E45.00564
G1 X-6.735 Y17.446 E45.12722
G1 X6.735 Y3.975 E47.40509
G1 X6.735 Y2.958 E47.52667
G1 X-6.735 Y16.429 E49.80454
G1 X-6.735 Y15.412 E49.92612
G1 X6.735 Y1.942 E52.20399
G1 X6.735 Y0.925 E52.32557
G1 X-6.735 Y14.395 E54.60344
G1 X-6.735 Y13.379 E54.72502
G1 X6.735 Y-0.092 E57.00289
G1 X6.735 Y-1.109 E57.12447
G1 X-6.735 Y12.362 E59.40234
G1 X-6.735 Y11.345 E59.52392
G1 X6.735 Y-2.126 E61.80179
G1 X6.735 Y-3.143 E61.92337
G1 X-6.735 Y10.328 E64.20124
G1 X-6.735 Y9.311 E64.32282
G1 X6.735 Y-4.159 E66.60068
G1 X6.735 Y-5.176 E66.72227
G1 X-6.735 Y8.294 E69.00013
G1 X-6.735 Y7.278 E69.12172
G1 X6.735 Y-6.193 E71.39958
G1 X6.735 Y-7.210 E71.52117
G1 X-6.735 Y6.261 E73.79903
G1 X-6.735 Y5.244 E73.92062
G1 X6.735 Y-8.227 E76.19848
G1 X6.735 Y-9.244 E76.32007
G1 X-6.735 Y4.227 E78.59793
G1 X-6.735 Y3.210 E78.71952
G1 X6.735 Y-10.260 E80.99738
G1 X6.735 Y-11.277 E81.11897
G1 X-6.735 Y2.193 E83.39683
G1 X-6.735 Y1.177 E83.51842
G1 X6.735 Y-12.294 E85.79628
G1 X6.735 Y-13.311 E85.91787
G1 X-6.735 Y0.160 E88.19573
G1 X-6.735 Y-0.857 E88.31732
G1 X6.735 Y-14.328 E90.59518
G1 X6.735 Y-15.344 E90.71677
G1 X-6.735 Y-1.874 E92.99463
G1 X-6.735 Y-2.891 E93.11622
G1 X6.735 Y-16.361 E95.39408
G1 X6.735 Y-17.378 E95.51566
G1 X-6.735 Y-3.908 E97.79353
G1 X-6.735 Y-4.924 E97.91511
G1 X6.735 Y-18.395 E100.19298
G1 X6.735 Y-19.412 E100.31456
G1 X-6.735 Y-5.941 E102.59243
G1 X-6.735 Y-6.958 E102.71401
G1 X6.735 Y-20.429 E104.99188
G1 X6.735 Y-21.445 E105.11346
G1 X-6.735 Y-7.975 E107.39133
G1 X-6.735 Y-8.992 E107.51291
G1 X6.735 Y-22.462 E109.79078
G1 X6.735 Y-23.479 E109.91236
G1 X-6.735 Y-10.009 E112.19023
G1 X-6.735 Y-11.025 E112.31181
G1 X6.735 Y-24.496 E114.58968
G1 X6.735 Y-25.513 E114.71126
G1 X-6.735 Y-12.042 E116.98913
G1 X-6.735 Y-13.059 E117.11071
G1 X6.735 Y-26.530 E119.38858
G1 X6.735 Y-27.546 E119.51016
G1 X-6.735 Y-14.076 E121.78803
G1 X-6.735 Y-15.093 E121.90961
G1 X6.735 Y-28.563 E124.18748
G1 X6.735 Y-29.580 E124.30906
G1 X-6.735 Y-16.110 E126.58693
G1 X-6.735 Y-17.126 E126.70851
G1 X6.735 Y-30.597 E128.98638
G1 X6.735 Y-31.614 E129.10796
G1 X-6.735 Y-18.143 E131.38582
G1 X-6.735 Y-19.160 E131.50741
G1 X6.735 Y-32.631 E133.78527
G1 X6.735 Y-33.647 E133.90686
G1 X-6.735 Y-20.177 E136.18472
G1 X-6.735 Y-21.194 E136.30631
G1 X6.735 Y-34.664 E138.58417
G1 X6.735 Y-35.681 E138.70576
G1 X-6.735 Y-22.211 E140.98362
G1 X-6.735 Y-23.227 E141.10521
G1 X3.266 Y-33.229 E142.79645
G1 X2.905 Y-32.951 E142.85088
G1 X2.342 Y-32.642 E142.92778
G1 X1.776 Y-32.418 E143.00057
G1 X1.321 Y-32.301 E143.05665
G1 X-6.735 Y-24.244 E144.41903
G1 X-6.735 Y-25.261 E144.54062
G1 X0.186 Y-32.183 E145.71106
G1 X-0.592 Y-32.256 E145.80450
G1 X-0.723 Y-32.290 E145.82073
G1 X-6.735 Y-26.278 E146.83737
G1 X-6.735 Y-27.295 E146.95896
G1 X-1.501 Y-32.529 E147.84404
G1 X-1.786 Y-32.642 E147.88070
G1 X-2.186 Y-32.861 E147.93519
G1 X-6.735 Y-28.311 E148.70454
G1 X-6.735 Y-29.328 E148.82613
G1 X-2.780 Y-33.284 E149.49500
G1 X-3.013 Y-33.465 E149.53031
G1 X-3.305 Y-33.776 E149.58128
G1 X-6.735 Y-30.345 E150.16135
G1 X-6.735 Y-31.362 E150.28294
G1 X-3.753 Y-34.344 E150.78728
G1 X-4.120 Y-34.994 E150.87649
G1 X-6.735 Y-32.379 E151.31869
G1 X-6.735 Y-33.396 E151.44027
G1 X-4.387 Y-35.744 E151.83741
G1 X-4.442 Y-35.985 E151.86692
G1 X-5.163 Y-35.985 E151.95315
G1 X-6.735 Y-34.412 E152.21905
G1 X-6.735 Y-35.429 E152.34063
G1 X-6.180 Y-35.985 E152.43460
G1 E150.43460 F2400.00000
G92 E0
G1 X3.557 Y-33.520 F7800.000
G1 E2.00000 F2400.00000
G1 F1800
G1 X6.023 Y-35.985 E2.41693
G1 X5.006 Y-35.985 E2.53851
G1 X4.450 Y-35.430 E2.63244
G1 E0.63244 F2400.00000
G92 E0
G1 X6.129 Y28.985 F7800.000
G1 E2.00000 F2400.00000
G1 F1800
G1 X6.735 Y28.379 E2.10249
G1 X6.735 Y27.362 E2.22408
G1 X5.112 Y28.985 E2.49852
G1 X4.096 Y28.985 E2.62010
G1 X6.735 Y26.346 E3.06648
G1 X6.735 Y25.329 E3.18807
G1 X3.079 Y28.985 E3.80640
G1 X2.180 Y28.985 E3.91388
G1 X2.180 Y29.884 E4.02136
G1 X2.735 Y29.329 F7800.000
G1 F1800
G1 X-2.735 Y34.799 E4.94643
G1 X-2.735 Y35.816 E5.06801
G1 X2.735 Y30.346 E5.99308
G1 X2.735 Y31.362 E6.11467
G1 X-1.888 Y35.985 E6.89640
G1 X-0.871 Y35.985 E7.01799
G1 X2.735 Y32.379 E7.62778
G1 X2.735 Y33.396 E7.74936
G1 X0.146 Y35.985 E8.18721
G1 X1.163 Y35.985 E8.30879
G1 X2.735 Y34.413 E8.57470
G1 X2.735 Y35.430 E8.69628
G1 X2.180 Y35.985 E8.79024
M104 S230 ; set temperature
G1 Z0.700 F7800.000
G1 X-3.964 Y30.214 F7800.000
G1 F3600
G1 X-7.964 Y30.214 E8.99922
G1 X-7.964 Y-37.214 E12.52196
G1 X-3.309 Y-37.212 E12.76514
G1 X-3.339 Y-36.739 E12.78988
G1 X-3.295 Y-36.219 E12.81716
G1 X-3.178 Y-35.727 E12.84360
G1 X-3.020 Y-35.329 E12.86597
G1 X-2.813 Y-34.952 E12.88843
G1 X-2.498 Y-34.536 E12.91571
G1 X-2.135 Y-34.183 E12.94215
G1 X-1.789 Y-33.931 E12.96452
G1 X-1.421 Y-33.730 E12.98642
G1 X-1.032 Y-33.575 E13.00832
G1 X-0.610 Y-33.467 E13.03108
G1 X-0.000 Y-33.409 E13.06307
G1 X0.610 Y-33.467 E13.09507
G1 X1.032 Y-33.575 E13.11782
G1 X1.421 Y-33.730 E13.13973
G1 X1.789 Y-33.931 E13.16163
G1 X2.128 Y-34.178 E13.18353
G1 X2.445 Y-34.476 E13.20628
G1 X2.811 Y-34.947 E13.23742
G1 X3.020 Y-35.329 E13.26018
G1 X3.179 Y-35.728 E13.28263
G1 X3.298 Y-36.237 E13.30991
G1 X3.339 Y-36.741 E13.33635
G1 X3.309 Y-37.214 E13.36111
G1 X7.964 Y-37.214 E13.60430
G1 X7.964 Y30.214 E17.12706
G1 X3.964 Y30.214 E17.33604
G1 X3.964 Y37.214 E17.70175
G1 X-3.964 Y37.214 E18.11593
G1 X-3.964 Y30.274 E18.47851
G1 X-4.383 Y30.633 F7800.000
G1 F3600
G1 X-8.383 Y30.633 E18.68749
G1 X-8.383 Y-37.633 E22.25401
G1 X-2.797 Y-37.631 E22.54582
G1 X-2.895 Y-37.116 E22.57321
G1 X-2.919 Y-36.744 E22.59269
G1 X-2.881 Y-36.285 E22.61671
G1 X-2.778 Y-35.853 E22.63993
G1 X-2.641 Y-35.507 E22.65936
G1 X-2.461 Y-35.181 E22.67884
G1 X-2.183 Y-34.814 E22.70286
G1 X-1.865 Y-34.504 E22.72608
G1 X-1.564 Y-34.286 E22.74551
G1 X-1.243 Y-34.109 E22.76466
G1 X-0.902 Y-33.974 E22.78381
G1 X-0.537 Y-33.881 E22.80347
G1 X-0.000 Y-33.830 E22.83167
G1 X0.537 Y-33.881 E22.85987
G1 X0.902 Y-33.974 E22.87953
G1 X1.243 Y-34.109 E22.89868
G1 X1.564 Y-34.286 E22.91782
G1 X1.860 Y-34.501 E22.93697
G1 X2.135 Y-34.759 E22.95663
G1 X2.459 Y-35.178 E22.98432
G1 X2.641 Y-35.507 E23.00398
G1 X2.778 Y-35.854 E23.02346
G1 X2.883 Y-36.302 E23.04748
G1 X2.919 Y-36.745 E23.07070
G1 X2.895 Y-37.117 E23.09018
G1 X2.795 Y-37.633 E23.11764
G1 X8.383 Y-37.633 E23.40956
G1 X8.383 Y30.633 E26.97608
G1 X4.383 Y30.633 E27.18506
G1 X4.383 Y37.633 E27.55078
G1 X-4.383 Y37.633 E28.00873
G1 X-4.383 Y30.693 E28.37131
G1 X-4.780 Y31.030 F7800.000
G1 F1800
G1 X-8.780 Y31.030 E28.55871
G1 X-8.780 Y-38.030 E31.79412
G1 X-2.168 Y-38.028 E32.10388
G1 X-2.282 Y-37.820 E32.11499
G1 X-2.441 Y-37.380 E32.13689
G1 X-2.501 Y-37.066 E32.15188
G1 X-2.521 Y-36.748 E32.16682
G1 X-2.487 Y-36.348 E32.18559
G1 X-2.398 Y-35.973 E32.20367
G1 X-2.281 Y-35.677 E32.21859
G1 X-2.127 Y-35.398 E32.23353
G1 X-1.885 Y-35.078 E32.25230
G1 X-1.608 Y-34.809 E32.27038
G1 X-1.351 Y-34.622 E32.28530
G1 X-1.073 Y-34.469 E32.30013
G1 X-0.779 Y-34.353 E32.31496
G1 X-0.469 Y-34.273 E32.32995
G1 X-0.000 Y-34.229 E32.35202
G1 X0.469 Y-34.273 E32.37408
G1 X0.779 Y-34.353 E32.38908
G1 X1.073 Y-34.469 E32.40390
G1 X1.351 Y-34.622 E32.41873
G1 X1.607 Y-34.808 E32.43356
G1 X1.840 Y-35.027 E32.44855
G1 X2.126 Y-35.396 E32.47046
G1 X2.281 Y-35.677 E32.48545
G1 X2.398 Y-35.973 E32.50038
G1 X2.490 Y-36.363 E32.51916
G1 X2.521 Y-36.748 E32.53724
G1 X2.501 Y-37.066 E32.55218
G1 X2.438 Y-37.390 E32.56764
G1 X2.282 Y-37.820 E32.58906
G1 X2.167 Y-38.030 E32.60027
G1 X8.780 Y-38.030 E32.91010
G1 X8.780 Y31.030 E36.14551
G1 X4.780 Y31.030 E36.33291
G1 X4.780 Y38.030 E36.66085
G1 X-4.780 Y38.030 E37.10873
G1 X-4.780 Y31.090 E37.43387
G1 X-4.903 Y30.649 F7800.000
G1 X-7.708 Y29.054 F7800.000
G1 F1200
G1 X-6.804 Y29.958 E37.50111
G1 X-6.207 Y29.958 E37.53248
G1 X-7.708 Y28.457 E37.64408
G1 X-7.708 Y27.861 E37.67544
G1 X-5.611 Y29.958 E37.83140
G1 X-5.015 Y29.958 E37.86276
G1 X-7.708 Y27.265 E38.06307
G1 X-7.708 Y26.668 E38.09443
G1 X-4.418 Y29.958 E38.33910
G1 X-3.822 Y29.958 E38.37046
G1 X-7.708 Y26.072 E38.65948
G1 X-7.708 Y25.476 E38.69084
G1 X3.708 Y36.892 E39.53994
G1 X3.708 Y36.295 E39.57130
G1 X-7.708 Y24.879 E40.42039
G1 X-7.708 Y24.283 E40.45176
G1 X3.708 Y35.699 E41.30085
G1 X3.708 Y35.103 E41.33221
G1 X-7.708 Y23.687 E42.18130
G1 X-7.708 Y23.090 E42.21267
G1 X3.708 Y34.506 E43.06176
G1 X3.708 Y33.910 E43.09312
G1 X-7.708 Y22.494 E43.94221
G1 X-7.708 Y21.898 E43.97358
G1 X3.708 Y33.314 E44.82267
G1 X3.708 Y32.717 E44.85403
G1 X-7.708 Y21.301 E45.70313
G1 X-7.708 Y20.705 E45.73449
G1 X3.708 Y32.121 E46.58358
G1 X3.708 Y31.525 E46.61494
G1 X-7.708 Y20.109 E47.46404
G1 X-7.708 Y19.512 E47.49540
G1 X3.708 Y30.928 E48.34449
G1 X3.708 Y30.332 E48.37585
G1 X-7.708 Y18.916 E49.22495
G1 X-7.708 Y18.320 E49.25631
G1 X3.930 Y29.958 E50.12194
G1 X4.527 Y29.958 E50.15330
G1 X-7.708 Y17.723 E51.06328
G1 X-7.708 Y17.127 E51.09464
G1 X5.123 Y29.958 E52.04898
G1 X5.719 Y29.958 E52.08034
G1 X-7.708 Y16.531 E53.07903
G1 X-7.708 Y15.934 E53.11040
G1 X6.316 Y29.958 E54.15344
G1 X6.912 Y29.958 E54.18480
G1 X-7.708 Y15.338 E55.27220
G1 X-7.708 Y14.742 E55.30356
G1 X7.508 Y29.958 E56.43532
G1 X7.708 Y29.958 E56.44582
G1 X7.708 Y29.561 E56.46668
G1 X-7.708 Y14.145 E57.61329
G1 X-7.708 Y13.549 E57.64465
G1 X7.708 Y28.965 E58.79125
G1 X7.708 Y28.369 E58.82262
G1 X-7.708 Y12.953 E59.96922
G1 X-7.708 Y12.356 E60.00059
G1 X7.708 Y27.772 E61.14719
G1 X7.708 Y27.176 E61.17855
G1 X-7.708 Y11.760 E62.32516
G1 X-7.708 Y11.164 E62.35652
G1 X7.708 Y26.580 E63.50313
G1 X7.708 Y25.983 E63.53449
G1 X-7.708 Y10.567 E64.68110
G1 X-7.708 Y9.971 E64.71246
G1 X7.708 Y25.387 E65.85907
G1 X7.708 Y24.791 E65.89043
G1 X-7.708 Y9.375 E67.03703
G1 X-7.708 Y8.778 E67.06840
G1 X7.708 Y24.194 E68.21500
G1 X7.708 Y23.598 E68.24637
G1 X-7.708 Y8.182 E69.39297
G1 X-7.708 Y7.586 E69.42433
G1 X7.708 Y23.002 E70.57094
G1 X7.708 Y22.405 E70.60230
G1 X-7.708 Y6.989 E71.74891
G1 X-7.708 Y6.393 E71.78027
G1 X7.708 Y21.809 E72.92688
G1 X7.708 Y21.213 E72.95824
G1 X-7.708 Y5.797 E74.10485
G1 X-7.708 Y5.200 E74.13621
G1 X7.708 Y20.616 E75.28281
G1 X7.708 Y20.020 E75.31418
G1 X-7.708 Y4.604 E76.46078
G1 X-7.708 Y4.008 E76.49215
G1 X7.708 Y19.424 E77.63875
G1 X7.708 Y18.827 E77.67011
G1 X-7.708 Y3.411 E78.81672
G1 X-7.708 Y2.815 E78.84808
